assets/icons/qvision/delete_sweep.svg

<svg xmlns="http://www.w3.org/2000/svg" height="24" viewBox="0 0 24 24" width="24"><path d="M0 0h24v24H0z" fill="none"/><path d="M15 16h4v2h-4zm0-8h7v2h-7zm0 4h6v2h-6zM3 18c0 1.1.9 2 2 2h6c1.1 0 2-.9 2-2V8H3v10zM14 5h-3l-1-1H6L5 5H2v2h12z"/></svg>

<svg width="24" height="24" viewBox="0 0 24 24" fill="none" xmlns="http://www.w3.org/2000/svg">
<g clip-path="url(#clip0_147_2125)">
<path d="M15 16H19V18H15V16ZM15 8H22V10H15V8ZM15 12H21V14H15V12ZM3 18C3 19.1 3.9 20 5 20H11C12.1 20 13 19.1 13 18V8H3V18ZM14 5H11L10 4H6L5 5H2V7H14V5Z" fill="#323232"/>
</g>
<defs>
<clipPath id="clip0_147_2125">
<rect width="24" height="24" fill="white"/>
</clipPath>
</defs>
</svg>
